X:1
T:Recorda-Me
T:Recorda-me
T:Joe Henderson
T:1963 Johen Music
C:Joe Henderson
Z:All Rights Reserved
L:1/8
M:4/4
K:C
V:1 treble 
%%MIDI program 11
V:1
 z2 z e bc'ec |:"Am7" ^f4 z gab | b2 ab- bc'ec | ^f g2 a- a b2 b- | baba d'_e'g_e | %5
"Cm7" a4 z _bc'd' | d'2 c'd'- d'_e'g_e | a _b2 c'- c' d'2 .d' | z2 z c'"F7" d'2 c'f- |"Bbmaj7" f8 | %10
"Bbm7" z _efc'-"Eb7" c'2 _bg |"Abmaj7" _e4- ede_b- |"Abm7" b4"Db7" ._a2 f_d- |"Gbmaj7" d8 | %14
"Gm7" z2 a4"C7" z g |"Fmaj7" c3 c- cc"E7#9" !>!g2- |1 g3 e bc'ec :|2"E7#9" g8 |] %18

